public/cards/8-H.svg

<?xml version="1.0" encoding="UTF-8"?>
<svg width="360px" height="540px" viewBox="0 0 360 540" version="1.1" xmlns="http://www.w3.org/2000/svg" xmlns:xlink="http://www.w3.org/1999/xlink">
    <!-- Generator: Sketch 55.2 (78181) - https://sketchapp.com -->
    <title>8-H</title>
    <desc>Created with Sketch.</desc>
    <g id="Page-1" stroke="none" stroke-width="1" fill="none" fill-rule="evenodd">
        <g id="English_pattern_playing_cards_deck" transform="translate(-2730.000000, -571.000000)" fill-rule="nonzero">
            <g id="8-H" transform="translate(2730.000000, 570.637818)">
                <rect id="rect6472-7" stroke="#000000" stroke-width="0.99999976" fill="#FFFFFF" x="0.5" y="0.86218" width="359" height="539" rx="29.944447"></rect>
                <path d="M30,30.36208 C24.46,30.36208 20,34.82208 20,40.36208 L20,45.36208 C20,48.36568 21.323,51.03208 23.4063,52.86208 C21.323,54.69208 20,57.35848 20,60.36208 L20,70.36208 C20,75.90208 24.46,80.36208 30,80.36208 C35.54,80.36208 40,75.90208 40,70.36208 L40,60.36208 C40,57.35848 38.677,54.69208 36.5938,52.86208 C38.677,51.03208 40,48.36568 40,45.36208 L40,40.36208 C40,34.82208 35.54,30.36208 30,30.36208 Z M30,35.36208 C32.77,35.36208 35,37.59208 35,40.36208 L35,45.36208 C35,48.13208 32.77,50.36208 30,50.36208 C27.23,50.36208 25,48.13208 25,45.36208 L25,40.36208 C25,37.59208 27.23,35.36208 30,35.36208 Z M30,55.36208 C32.77,55.36208 35,57.59208 35,60.36208 L35,70.36208 C35,73.13208 32.77,75.36208 30,75.36208 C27.23,75.36208 25,73.13208 25,70.36208 L25,60.36208 C25,57.59208 27.23,55.36208 30,55.36208 Z" id="rect3163-5-18-0-7-3" fill="#FF5555"></path>
                <path d="M330,510.3621 C324.46,510.3621 320,505.9021 320,500.3621 L320,495.3621 C320,492.3585 321.323,489.6921 323.4063,487.8621 C321.323,486.0321 320,483.3657 320,480.36208 L320,470.36208 C320,464.82208 324.46,460.36208 330,460.36208 C335.54,460.36208 340,464.82208 340,470.36208 L340,480.36208 C340,483.3657 338.677,486.0321 336.5938,487.8621 C338.677,489.6921 340,492.3585 340,495.3621 L340,500.3621 C340,505.9021 335.54,510.3621 330,510.3621 L330,510.3621 Z M330,505.3621 C332.77,505.3621 335,503.1321 335,500.3621 L335,495.3621 C335,492.5921 332.77,490.3621 330,490.3621 C327.23,490.3621 325,492.5921 325,495.3621 L325,500.3621 C325,503.1321 327.23,505.3621 330,505.3621 Z M330,485.3621 C332.77,485.3621 335,483.1321 335,480.36208 L335,470.36208 C335,467.59208 332.77,465.36208 330,465.36208 C327.23,465.36208 325,467.59208 325,470.36208 L325,480.36208 C325,483.1321 327.23,485.3621 330,485.3621 Z" id="rect3163-5-18-0-7-4-4" fill="#FF5555"></path>
                <path d="M329.5,441.36218 C329.5,446.88503 326.64213,450.36218 322.5,450.36218 C318.35786,450.36218 315,445.88503 315,440.36218 C315.0174,439.88438 315.009,439.41659 315,438.95593 C315,435.30669 316.33842,431.76751 317.5,428.45593 C318.69452,425.05045 320.41678,422.06559 322.03125,419.01843 C324.53186,414.29873 330,405.36218 330,405.36218 C330,405.36218 335.46814,414.29873 337.96875,419.01843 C339.58321,422.06559 341.30548,425.05045 342.5,428.45593 C343.66157,431.76751 345,435.30669 345,438.95593 C344.9858,439.44313 344.991,439.91324 345,440.36218 C345,445.88503 341.64213,450.36218 337.5,450.36218 C333.35786,450.36218 330.5,446.88503 330.5,441.36218 C330.5,440.36218 329.5,440.36218 329.5,441.36218 Z" id="path3126-1-7-9" fill="#FF5555"></path>
                <path d="M89,63.36218 C89,52.31649 83.28427,45.36218 75,45.36218 C66.71573,45.36218 60,54.31649 60,65.36218 C60.0349,66.31777 60.0182,67.25337 60,68.17468 C60,75.47316 62.67685,82.55152 65,89.17468 C67.38903,95.98564 70.83357,101.95535 74.0625,108.04968 C79.06373,117.48908 90,135.36218 90,135.36218 C90,135.36218 100.93627,117.48908 105.9375,108.04968 C109.16643,101.95535 112.61097,95.98564 115,89.17468 C117.32315,82.55152 120,75.47316 120,68.17468 C119.9716,67.20028 119.9814,66.26006 120,65.36218 C120,54.31649 113.28427,45.36218 105,45.36218 C96.71573,45.36218 91,52.31649 91,63.36218 C91,65.36218 89,65.36218 89,63.36218 Z" id="path3126-65" fill="#FF5555"></path>
                <path d="M269,63.36218 C269,52.31649 263.28427,45.36218 255,45.36218 C246.71573,45.36218 240,54.31649 240,65.36218 C240.0349,66.31777 240.0182,67.25337 240,68.17468 C240,75.47316 242.67685,82.55152 245,89.17468 C247.38903,95.98564 250.83357,101.95535 254.0625,108.04968 C259.06373,117.48908 270,135.36218 270,135.36218 C270,135.36218 280.93627,117.48908 285.9375,108.04968 C289.16643,101.95535 292.61097,95.98564 295,89.17468 C297.32315,82.55152 300,75.47316 300,68.17468 C299.9716,67.20028 299.9814,66.26006 300,65.36218 C300,54.31649 293.28427,45.36218 285,45.36218 C276.71573,45.36218 271,52.31649 271,63.36218 C271,65.36218 269,65.36218 269,63.36218 Z" id="path3126-4-1" fill="#FF5555"></path>
                <path d="M179,153.36218 C179,142.31649 173.28427,135.36218 165,135.36218 C156.71573,135.36218 150,144.31649 150,155.36218 C150.0349,156.31777 150.0182,157.25337 150,158.17468 C150,165.47316 152.67685,172.55152 155,179.17468 C157.38903,185.98564 160.83357,191.95535 164.0625,198.04968 C169.06373,207.48908 180,225.36218 180,225.36218 C180,225.36218 190.93627,207.48908 195.9375,198.04968 C199.16643,191.95535 202.61097,185.98564 205,179.17468 C207.32315,172.55152 210,165.47316 210,158.17468 C209.9716,157.20028 209.9814,156.26006 210,155.36218 C210,144.31649 203.28427,135.36218 195,135.36218 C186.71573,135.36218 181,142.31649 181,153.36218 C181,155.36218 179,155.36218 179,153.36218 Z" id="path3126-0-0" fill="#FF5555"></path>
                <path d="M89,243.36218 C89,232.31649 83.28427,225.36218 75,225.36218 C66.71573,225.36218 60,234.31649 60,245.36218 C60.0349,246.31777 60.0182,247.25337 60,248.17468 C60,255.47316 62.67685,262.55152 65,269.17468 C67.38903,275.98564 70.83357,281.95535 74.0625,288.04968 C79.06373,297.48908 90,315.36218 90,315.36218 C90,315.36218 100.93627,297.48908 105.9375,288.04968 C109.16643,281.95535 112.61097,275.98564 115,269.17468 C117.32315,262.55152 120,255.47316 120,248.17468 C119.9716,247.20028 119.9814,246.26006 120,245.36218 C120,234.31649 113.28427,225.36218 105,225.36218 C96.71573,225.36218 91,232.31649 91,243.36218 C91,245.36218 89,245.36218 89,243.36218 Z" id="path3126-9-9" fill="#FF5555"></path>
                <path d="M269,243.36218 C269,232.31649 263.28427,225.36218 255,225.36218 C246.71573,225.36218 240,234.31649 240,245.36218 C240.0349,246.31777 240.0182,247.25337 240,248.17468 C240,255.47316 242.67685,262.55152 245,269.17468 C247.38903,275.98564 250.83357,281.95535 254.0625,288.04968 C259.06373,297.48908 270,315.36218 270,315.36218 C270,315.36218 280.93627,297.48908 285.9375,288.04968 C289.16643,281.95535 292.61097,275.98564 295,269.17468 C297.32315,262.55152 300,255.47316 300,248.17468 C299.9716,247.20028 299.9814,246.26006 300,245.36218 C300,234.31649 293.28427,225.36218 285,225.36218 C276.71573,225.36218 271,232.31649 271,243.36218 C271,245.36218 269,245.36218 269,243.36218 Z" id="path3126-48-96" fill="#FF5555"></path>
                <path d="M179,387.36218 C179,398.40787 173.28427,405.36218 165,405.36218 C156.71573,405.36218 150,396.40787 150,385.36218 C150.0349,384.40659 150.0182,383.47099 150,382.54968 C150,375.2512 152.67685,368.17284 155,361.54968 C157.38903,354.73872 160.83357,348.76901 164.0625,342.67468 C169.06373,333.23528 180,315.36218 180,315.36218 C180,315.36218 190.93627,333.23528 195.9375,342.67468 C199.16643,348.76901 202.61097,354.73872 205,361.54968 C207.32315,368.17284 210,375.2512 210,382.54968 C209.9716,383.52408 209.9814,384.4643 210,385.36218 C210,396.40787 203.28427,405.36218 195,405.36218 C186.71573,405.36218 181,398.40787 181,387.36218 C181,385.36218 179,385.36218 179,387.36218 Z" id="path3126-8-83" fill="#FF5555"></path>
                <path d="M89,477.3622 C89,488.4079 83.28427,495.3622 75,495.3622 C66.71573,495.3622 60,486.40789 60,475.3622 C60.0349,474.40661 60.0182,473.47101 60,472.5497 C60,465.25122 62.67685,458.17286 65,451.5497 C67.38903,444.73874 70.83357,438.76903 74.0625,432.6747 C79.06373,423.2353 90,405.36218 90,405.36218 C90,405.36218 100.93627,423.2353 105.9375,432.6747 C109.16643,438.76903 112.61097,444.73874 115,451.5497 C117.32315,458.17286 120,465.25122 120,472.5497 C119.9716,473.5241 119.9814,474.46432 120,475.3622 C120,486.40789 113.28427,495.3622 105,495.3622 C96.71573,495.3622 91,488.4079 91,477.3622 C91,475.3622 89,475.3622 89,477.3622 L89,477.3622 Z" id="path3126-24" fill="#FF5555"></path>
                <path d="M269,477.3622 C269,488.4079 263.28427,495.3622 255,495.3622 C246.71573,495.3622 240,486.40789 240,475.3622 C240.0349,474.40661 240.0182,473.47101 240,472.5497 C240,465.25122 242.67685,458.17286 245,451.5497 C247.38903,444.73874 250.83357,438.76903 254.0625,432.6747 C259.06373,423.2353 270,405.36218 270,405.36218 C270,405.36218 280.93627,423.2353 285.9375,432.6747 C289.16643,438.76903 292.61097,444.73874 295,451.5497 C297.32315,458.17286 300,465.25122 300,472.5497 C299.9716,473.5241 299.9814,474.46432 300,475.3622 C300,486.40789 293.28427,495.3622 285,495.3622 C276.71573,495.3622 271,488.4079 271,477.3622 C271,475.3622 269,475.3622 269,477.3622 L269,477.3622 Z" id="path3126-5" fill="#FF5555"></path>
                <path d="M29.5,99.36218 C29.5,93.83933 26.642135,90.36218 22.5,90.36218 C18.357865,90.36218 15,94.83933 15,100.36218 C15.01745,100.83998 15.0091,101.30777 15,101.76843 C15,105.41767 16.338425,108.95685 17.5,112.26843 C18.694515,115.67391 20.416785,118.65877 22.03125,121.70593 C24.531865,126.42563 30,135.36218 30,135.36218 C30,135.36218 35.468135,126.42563 37.96875,121.70593 C39.583215,118.65877 41.305485,115.67391 42.5,112.26843 C43.661575,108.95685 45,105.41767 45,101.76843 C44.9858,101.28123 44.9907,100.81112 45,100.36218 C45,94.83933 41.642135,90.36218 37.5,90.36218 C33.357865,90.36218 30.5,93.83933 30.5,99.36218 C30.5,100.36218 29.5,100.36218 29.5,99.36218 Z" id="path3126-1-48" fill="#FF5555"></path>
            </g>
        </g>
    </g>
</svg>

<svg width="360" height="540" xmlns="http://www.w3.org/2000/svg"><g transform="translate(0 -.362)" fill-rule="nonzero" fill="none"><rect stroke="#000" fill="#FFF" x=".5" y=".862" width="359" height="539" rx="29.944"/><path d="M30 30.362c-5.54 0-10 4.46-10 10v5c0 3.004 1.323 5.67 3.406 7.5-2.083 1.83-3.406 4.496-3.406 7.5v10c0 5.54 4.46 10 10 10s10-4.46 10-10v-10c0-3.004-1.323-5.67-3.406-7.5 2.083-1.83 3.406-4.496 3.406-7.5v-5c0-5.54-4.46-10-10-10zm0 5c2.77 0 5 2.23 5 5v5c0 2.77-2.23 5-5 5s-5-2.23-5-5v-5c0-2.77 2.23-5 5-5zm0 20c2.77 0 5 2.23 5 5v10c0 2.77-2.23 5-5 5s-5-2.23-5-5v-10c0-2.77 2.23-5 5-5zM330 510.362c-5.54 0-10-4.46-10-10v-5c0-3.004 1.323-5.67 3.406-7.5-2.083-1.83-3.406-4.496-3.406-7.5v-10c0-5.54 4.46-10 10-10s10 4.46 10 10v10c0 3.004-1.323 5.67-3.406 7.5 2.083 1.83 3.406 4.496 3.406 7.5v5c0 5.54-4.46 10-10 10zm0-5c2.77 0 5-2.23 5-5v-5c0-2.77-2.23-5-5-5s-5 2.23-5 5v5c0 2.77 2.23 5 5 5zm0-20c2.77 0 5-2.23 5-5v-10c0-2.77-2.23-5-5-5s-5 2.23-5 5v10c0 2.77 2.23 5 5 5zM329.5 441.362c0 5.523-2.858 9-7 9-4.142 0-7.5-4.477-7.5-10 .017-.478.009-.945 0-1.406 0-3.65 1.338-7.188 2.5-10.5 1.195-3.406 2.917-6.39 4.531-9.438 2.5-4.72 7.969-13.656 7.969-13.656s5.468 8.937 7.969 13.656c1.614 3.048 3.336 6.032 4.531 9.438 1.162 3.312 2.5 6.85 2.5 10.5-.014.487-.009.957 0 1.406 0 5.523-3.358 10-7.5 10-4.142 0-7-3.477-7-9 0-1-1-1-1 0zM89 63.362c0-11.046-5.716-18-14-18-8.284 0-15 8.954-15 20 .035.956.018 1.891 0 2.813 0 7.298 2.677 14.377 5 21 2.389 6.81 5.834 12.78 9.063 18.875 5 9.44 15.937 27.312 15.937 27.312s10.936-17.873 15.938-27.312c3.228-6.095 6.673-12.064 9.062-18.875 2.323-6.623 5-13.702 5-21a56.086 56.086 0 010-2.813c0-11.046-6.716-20-15-20-8.284 0-14 6.954-14 18 0 2-2 2-2 0zM269 63.362c0-11.046-5.716-18-14-18-8.284 0-15 8.954-15 20 .035.956.018 1.891 0 2.813 0 7.298 2.677 14.377 5 21 2.389 6.81 5.834 12.78 9.063 18.875 5 9.44 15.937 27.312 15.937 27.312s10.936-17.873 15.938-27.312c3.228-6.095 6.673-12.064 9.062-18.875 2.323-6.623 5-13.702 5-21a56.086 56.086 0 010-2.813c0-11.046-6.716-20-15-20-8.284 0-14 6.954-14 18 0 2-2 2-2 0zM179 153.362c0-11.046-5.716-18-14-18-8.284 0-15 8.954-15 20 .035.956.018 1.891 0 2.813 0 7.298 2.677 14.377 5 21 2.389 6.81 5.834 12.78 9.063 18.875 5 9.44 15.937 27.312 15.937 27.312s10.936-17.873 15.938-27.312c3.228-6.095 6.673-12.064 9.062-18.875 2.323-6.623 5-13.702 5-21a56.086 56.086 0 010-2.813c0-11.046-6.716-20-15-20-8.284 0-14 6.954-14 18 0 2-2 2-2 0zM89 243.362c0-11.046-5.716-18-14-18-8.284 0-15 8.954-15 20 .035.956.018 1.891 0 2.813 0 7.298 2.677 14.377 5 21 2.389 6.81 5.834 12.78 9.063 18.875 5 9.44 15.937 27.312 15.937 27.312s10.936-17.873 15.938-27.312c3.228-6.095 6.673-12.064 9.062-18.875 2.323-6.623 5-13.702 5-21a56.086 56.086 0 010-2.813c0-11.046-6.716-20-15-20-8.284 0-14 6.954-14 18 0 2-2 2-2 0zM269 243.362c0-11.046-5.716-18-14-18-8.284 0-15 8.954-15 20 .035.956.018 1.891 0 2.813 0 7.298 2.677 14.377 5 21 2.389 6.81 5.834 12.78 9.063 18.875 5 9.44 15.937 27.312 15.937 27.312s10.936-17.873 15.938-27.312c3.228-6.095 6.673-12.064 9.062-18.875 2.323-6.623 5-13.702 5-21a56.086 56.086 0 010-2.813c0-11.046-6.716-20-15-20-8.284 0-14 6.954-14 18 0 2-2 2-2 0zM179 387.362c0 11.046-5.716 18-14 18-8.284 0-15-8.954-15-20 .035-.955.018-1.891 0-2.812 0-7.299 2.677-14.377 5-21 2.389-6.811 5.834-12.781 9.063-18.875 5-9.44 15.937-27.313 15.937-27.313s10.936 17.873 15.938 27.313c3.228 6.094 6.673 12.064 9.062 18.875 2.323 6.623 5 13.701 5 21a56.086 56.086 0 000 2.812c0 11.046-6.716 20-15 20-8.284 0-14-6.954-14-18 0-2-2-2-2 0zM89 477.362c0 11.046-5.716 18-14 18-8.284 0-15-8.954-15-20 .035-.955.018-1.891 0-2.812 0-7.299 2.677-14.377 5-21 2.389-6.811 5.834-12.781 9.063-18.875 5-9.44 15.937-27.313 15.937-27.313s10.936 17.873 15.938 27.313c3.228 6.094 6.673 12.064 9.062 18.875 2.323 6.623 5 13.701 5 21a56.086 56.086 0 000 2.812c0 11.046-6.716 20-15 20-8.284 0-14-6.954-14-18 0-2-2-2-2 0zM269 477.362c0 11.046-5.716 18-14 18-8.284 0-15-8.954-15-20 .035-.955.018-1.891 0-2.812 0-7.299 2.677-14.377 5-21 2.389-6.811 5.834-12.781 9.063-18.875 5-9.44 15.937-27.313 15.937-27.313s10.936 17.873 15.938 27.313c3.228 6.094 6.673 12.064 9.062 18.875 2.323 6.623 5 13.701 5 21a56.086 56.086 0 000 2.812c0 11.046-6.716 20-15 20-8.284 0-14-6.954-14-18 0-2-2-2-2 0zM29.5 99.362c0-5.523-2.858-9-7-9-4.142 0-7.5 4.477-7.5 10 .017.478.01.946 0 1.406 0 3.65 1.338 7.189 2.5 10.5 1.195 3.406 2.917 6.39 4.531 9.438 2.5 4.72 7.969 13.656 7.969 13.656s5.468-8.936 7.969-13.656c1.614-3.047 3.336-6.032 4.531-9.438 1.162-3.311 2.5-6.85 2.5-10.5-.014-.487-.01-.957 0-1.406 0-5.523-3.358-10-7.5-10-4.142 0-7 3.477-7 9 0 1-1 1-1 0z" fill="#F55"/></g></svg>
